www/assets/icons/fastfood.svg

<svg width="24" height="24" viewBox="0 0 24 24" xmlns="http://www.w3.org/2000/svg" fill='currentColor'><path d="M18.06 22.9949H19.72C20.56 22.9949 21.25 22.3549 21.35 21.5349L23 5.05488H18V1.00488H16.03V5.05488H11.06L11.36 7.39488C13.07 7.86488 14.67 8.71488 15.63 9.65488C17.07 11.0749 18.06 12.5449 18.06 14.9449V22.9949ZM1 21.9949V21.0049H16.03V21.9949C16.03 22.5449 15.58 22.9949 15.02 22.9949H2.01C1.45 22.9949 1 22.5449 1 21.9949ZM16.03 14.9949C16.03 6.99488 1 6.99488 1 14.9949H16.03ZM1.02 17.0049H16.02V19.0049H1.02V17.0049Z"/></svg>

<svg xmlns="http://www.w3.org/2000/svg" width="24" height="24" viewBox="0 0 24 24" fill='currentColor'><path d="M18.06 22.995h1.66c.84 0 1.53-.64 1.63-1.46L23 5.055h-5v-4.05h-1.97v4.05h-4.97l.3 2.34c1.71.47 3.31 1.32 4.27 2.26 1.44 1.42 2.43 2.89 2.43 5.29zm-17.06-1v-.99h15.03v.99c0 .55-.45 1-1.01 1H2.01c-.56 0-1.01-.45-1.01-1m15.03-7c0-8-15.03-8-15.03 0zm-15.01 2.01h15v2h-15z"/></svg>
